static/logos/lookback-wordmark-color.svg

<svg width="100" height="19" viewBox="0 0 100 19" fill="none" xmlns="http://www.w3.org/2000/svg">
<g clip-path="url(#clip0_1_2117)">
<path d="M57.8404 6.16115C56.2908 6.16115 55.2649 6.81223 53.8908 7.90432V0.196403L53.5153 0L48.7656 2.24604V2.58993L50.603 3.71942V17.7482C52.2908 18.4842 53.803 18.6806 55.3527 18.6806C58.8153 18.6806 62.2282 16.3237 62.2282 11.9058C62.2153 8.6036 60.3534 6.16115 57.8404 6.16115ZM56.0908 16.9741C55.1656 16.9741 54.4649 16.5568 53.8779 15.8446V8.82446C54.5456 8.66482 55.2288 8.57849 55.9153 8.56691C57.603 8.56691 58.7153 9.94101 58.7153 12.7281C58.7282 15.4281 57.8656 16.9741 56.0908 16.9741ZM72.7779 16.446V10.9604C72.7779 7.84317 71.5779 6.14892 68.5656 6.14892C66.616 6.14892 65.0153 6.84892 63.616 8.22302L64.1527 9.29137C65.1779 8.64101 66.1527 8.2482 67.1527 8.2482C68.8153 8.2482 69.4656 9.2295 69.4656 11.1446V11.6482C64.516 12.1511 63.0779 13.7835 63.0779 15.8942C63.0779 17.9683 64.5404 18.6806 65.9153 18.6806C67.0908 18.6806 68.2908 18.177 69.4656 17.3914V18.3734H74.1908V16.582H72.903L72.7779 16.4468V16.446ZM69.4901 16.4101C68.9865 16.5568 68.4656 16.6439 67.9404 16.6676C66.9656 16.6676 66.2786 16.1892 66.3153 15.1209C66.3404 13.8568 67.2649 13.2432 69.4908 13.0468V16.4101H69.4901ZM82.1527 16.7288C80.1779 16.7288 78.3153 15.1583 78.3153 11.6353C78.3153 9.13166 79.0908 7.7813 80.5534 7.7813C81.1534 7.7813 81.6153 8.00216 82.1282 8.43166L84.303 11.2914H84.6779V6.77554C83.6045 6.38174 82.4714 6.1742 81.3282 6.16187C77.3153 6.16187 74.8282 9.02158 74.8282 12.7036C74.8282 16.3007 77.1153 18.6568 80.6908 18.6568C82.3404 18.6821 83.9419 18.101 85.1908 17.0237L84.6527 16.0424C83.7908 16.5331 83.0656 16.7295 82.1527 16.7295V16.7288ZM98.2282 16.582L94.3656 11.2424L99.4282 6.66475V6.44388H93.103V6.68849L94.7404 8.26043L91.0779 12.0899L95.4779 18.3856H100.003V16.5827H98.2282V16.582Z" fill="#192D41"/>
<path d="M90.8374 16.446V0.197122L90.4374 0L85.7122 2.24604V2.57698L87.5504 3.70647V16.4468L87.4 16.582H86.1122V18.3856H92.2748V16.5827H90.9878L90.8374 16.4475V16.446ZM2.93741 1.85324H0V18.4108H9.93741V15.7468H2.93741V1.85324ZM16.3 6.18561C12.6748 6.18561 9.93741 8.8741 9.93741 12.4331C9.93741 15.9928 12.6748 18.705 16.3 18.705C19.9252 18.705 22.6878 16.005 22.6878 12.4331C22.6878 8.86187 19.9496 6.18561 16.3 6.18561ZM16.3 16.1029C14.2748 16.1029 12.7504 14.5324 12.7504 12.4453C12.7504 10.359 14.2755 8.8 16.3 8.8C18.3 8.8 19.8755 10.3957 19.8755 12.4331C19.8755 14.5194 18.3504 16.1029 16.3 16.1029ZM30 6.17338C26.3748 6.17338 23.6374 8.86187 23.6374 12.4209C23.6374 15.9806 26.3748 18.6928 30 18.6928C33.6252 18.6928 36.3878 15.9928 36.3878 12.4209C36.3878 8.84892 33.6374 6.17338 30 6.17338ZM30 16.0784C27.9748 16.0784 26.4504 14.5072 26.4504 12.4209C26.4504 10.3345 27.9755 8.78777 30 8.78777C32 8.78777 33.5755 10.3835 33.5755 12.4209C33.5755 14.5072 32.0374 16.0784 30 16.0784ZM48.1748 6.45612H44.3504L40.7122 10.1626V1.2518H37.9V18.3856H40.713V13.1201L45.6374 18.3863H49.3252L43.0252 11.6353L48.1748 6.4554V6.45612Z" fill="#192D41"/>
</g>
<defs>
<clipPath id="clip0_1_2117">
<rect width="100" height="18.705" fill="white"/>
</clipPath>
</defs>
</svg>

<svg xmlns="http://www.w3.org/2000/svg" width="336.842" height="64" fill="none" viewBox="0 0 100 19"><g fill="#192D41" clip-path="url(#a)"><path d="M57.84 6.161c-1.55 0-2.575.651-3.95 1.743V.196L53.516 0l-4.75 2.246v.344l1.838 1.13v14.028c1.688.736 3.2.933 4.75.933 3.462 0 6.875-2.357 6.875-6.775-.013-3.302-1.875-5.745-4.388-5.745Zm-1.75 10.813c-.924 0-1.625-.417-2.212-1.13v-7.02a9.447 9.447 0 0 1 2.037-.257c1.688 0 2.8 1.374 2.8 4.161.013 2.7-.85 4.246-2.624 4.246Zm16.688-.528V10.96c0-3.117-1.2-4.811-4.212-4.811-1.95 0-3.55.7-4.95 2.074l.537 1.068c1.025-.65 2-1.043 3-1.043 1.662 0 2.313.982 2.313 2.897v.503c-4.95.503-6.388 2.136-6.388 4.246 0 2.074 1.462 2.787 2.837 2.787 1.176 0 2.376-.504 3.55-1.29v.982h4.726v-1.791h-1.288l-.125-.135v-.001Zm-3.288-.036a6.61 6.61 0 0 1-1.55.258c-.974 0-1.661-.479-1.625-1.547.025-1.264.95-1.878 3.176-2.074v3.363Zm12.663.319c-1.975 0-3.838-1.57-3.838-5.094 0-2.503.776-3.854 2.238-3.854.6 0 1.062.221 1.575.65l2.175 2.86h.375V6.776a10.04 10.04 0 0 0-3.35-.614c-4.013 0-6.5 2.86-6.5 6.542 0 3.597 2.287 5.953 5.863 5.953a6.731 6.731 0 0 0 4.5-1.633l-.538-.982c-.862.491-1.587.688-2.5.688v-.001Zm16.075-.147-3.862-5.34 5.062-4.577v-.221h-6.325v.244L94.74 8.26l-3.662 3.83 4.4 6.296h4.525v-1.803h-1.775v-.001Z"/><path d="M90.837 16.446V.197l-.4-.197-4.725 2.246v.331l1.838 1.13v12.74l-.15.135h-1.288v1.804h6.163v-1.803h-1.287l-.15-.135v-.002ZM2.937 1.853H0v16.558h9.937v-2.664h-7V1.853ZM16.3 6.186c-3.625 0-6.363 2.688-6.363 6.247 0 3.56 2.738 6.272 6.363 6.272 3.625 0 6.388-2.7 6.388-6.272 0-3.571-2.738-6.247-6.388-6.247Zm0 9.917c-2.025 0-3.55-1.57-3.55-3.658 0-2.086 1.525-3.645 3.55-3.645 2 0 3.575 1.596 3.575 3.633 0 2.086-1.525 3.67-3.575 3.67ZM30 6.173c-3.625 0-6.363 2.689-6.363 6.248 0 3.56 2.738 6.272 6.363 6.272 3.625 0 6.388-2.7 6.388-6.272S33.638 6.173 30 6.173Zm0 9.905c-2.025 0-3.55-1.57-3.55-3.657 0-2.086 1.526-3.633 3.55-3.633 2 0 3.575 1.595 3.575 3.633 0 2.086-1.538 3.657-3.575 3.657Zm18.175-9.622H44.35l-3.638 3.707V1.252H37.9v17.134h2.813V13.12l4.924 5.266h3.688l-6.3-6.75 5.15-5.18Z"/></g><defs><clipPath id="a"><path fill="#fff" d="M0 0h100v18.705H0z"/></clipPath></defs></svg>
